X:1
T:HWV1A2N21 - Zweier Augen Majestät
T:HWV1A2N21 - Zweier Augen Majestät
T:Aria for bass as Raymondo in E-Flat Major (written with two flats) in Act 2 of Almira, composed in 1704. From MuseScore 2 CC0©EJM. For more Handel, please see http://handel.ejmaurath.com/
T:Händel, Georg F.
T: Feustking, Christian
T:Sequenced by Edward James Maurath
T:Sequenced by Edward James Maurath
T:Sequenced by Edward James Maurath
C:Händel, Georg F.
Z:Feustking, Christian
Z:Sequenced by Edward James Maurath
%%score [ 1 2 ] { 3 | 4 }
L:1/8
Q:1/4=84
M:4/4
K:Bb
V:1 bass nm="Bassoon" snm="Bsn."
V:2 bass nm="Bassoon" snm="Bsn."
V:3 treble nm="Harpsichord" snm="Hch."
V:4 bass 
V:1
|:"^[no marking]" z8 | z8 | z8 | z8 | z4 E,3 C/B,/ | B,3 _A,/G,/ F,3 G,/E,/ | D,2 z2 z4 | z8 | z8 | %9
w: ||||Zwei- er *|Augen, Ma- * * je- *|stät|||
 E,3 C/B,/ B,3 _A,/G,/ | F,3 G,/E,/ D,2 z2 | G,2 F,2 _A,2 G,2 | C2 B,2 D3 E | G,2 F,E, E,2 z2 | %14
w: Zwei- er * Au- gen *|Ma- je- * stät,|zwei- er Au- gen|zwei- er Aug- en|Ma- je- * stät|
 z8 | z8 | z8 ||1 z4 G,3 _A, | B,2 B,,2 E,2 _A,2 | G,2 F,2 z4 | G,E,F,_A, G,E,F,A, | %21
w: |||die fast|al- le welt ent-|zü- cket|und * mit * Lie * bes- *|
 B,E, F,/_A,/G,/F,/ G,/E,/A,/G,/ F,2 | G,3 _A, =B,,2 C,2 | C3 _D =E,2 F,B, | %24
w: fer * seln * * * drü- * * cket *|war mein Leit- stern,|wie mein Leit- stern *|
 _A,3 G,/F,/ F,2 =B,2- | B,2 A,G, C2 E,2 | E,3 D,/C,/ C,4 | z8 | z8 | C,3 C, E,3 E, | %30
w: und Mag- * * net|* war mein Lei- stern|und Mag- * net,|||die fast al- le|
 F,2 E,2 D,2 D,2 | B,3 A, G,2 G,2 | C2 A,2 ^F,2 F,2 | z8 | A,2 B,/A,/B,/G,/ ^F,2 G,2 | %35
w: Welt ent- z\-- cket|un mit Lie- bers-|fes- seln drü- cket||war mein * * Leit- * stern,|
 A,3 B, C3 ^F, | G,B,A,G, G,2 z2 :|2 z8 |] %38
w: war mein Leit- stern|und Mag- * * net.||
V:2
|:"^Hidden Continuo by\nEdward J. Maurath" E,F,G,_A, B,EDE | B,EDE B,CDB, | EE,DE, CE,B,E, | %3
 _A,E,G,E, F,B,,E,G,, | _A,,F,,B,B,, E,F,G,_A, | B,EDE B,EDE | B,CDB, E,E,D,E, | %7
 C,E,B,,E, _A,E,G,E, | F,B,,E,G,, _A,F,B,B,, | E,F,G,_A, B,EDE | B,EDE B,CDB, | EE,DE, CE,B,E, | %12
 _A,E,G,E, F,B,,E,G,, | _A,F,B,B,, E,F,G,A, | B,EDE B,EDE | B,CDB, EE,DE, | CE,B,E, _A,E,B,B,, ||1 %17
 !fermata!E,B,,C,D, E,G,F,E, | D,C,B,,_A,, G,,C,F,,B,, | E,G,_A,B, E,G,A,B, | %20
 E,G,,_A,,B,, E,G,,A,,B,, | E,G,,_A,,B,, E,G,,A,,B,, | E,D,E,F, G,E,_A,G, | %23
 F,G,_A,B, C,_A,,_D,B,, | C,B,,C,C,, F,,F,D,F, | G,,D,G,F, E,D,E,F, | G,F,G,G,, CC,B,C, | %27
 _A,C,G,C, F,C,E,C, | D,G,,C,E, F,D,G,G,, | C,F,E,D, C,D,C,B,, | A,,G,,A,,F,, B,,C,B,,A,, | %31
 G,,D,G,F, E,D,C,B,, | A,,B,,C,A,, D,=E,^F,D, | DD,CD, B,D,A,D, | CD,B,D, A,D,G,D, | %35
 ^F,D,G,=F, E,D,E,C, | D,C,D,D,, G,,D,G,F, :|2 E,4 z4 |] %38
V:3
|: [G,B,E]3 [_Ac]/ [GB]/ [EGB]3 [FA]/ [EG]/ | [DF]3 G/ E/ D2 z2 | G2 F2 [E_A]2 [EG]2 | %3
 [Ec]2 [EB]2 [_ABd]3 [GBe] | G2 [DF] [G,E] E2 z _A/ G/ | [EG]3 F/ E/ D z3 | [DF] z F2 G2 F2 | %7
 [E_A]2 [EG]2 [Ec]2 [EB]2 | [_ABd]3 [GBe] G2 [DF] [G,E] | E2 z _A/ G/ [EG]3 F/ E/ | D z z4 F2 | %11
 z4 E2 E2 | E2 E2 [_AB]3 [GB] | G2 z z4 [_Ac]/ [GB]/ | [EGB]3 [F_A]/ [EG]/ [DF]3 G/ E/ | %15
 D2 z2 G2 F2 | [E_A]2 [EG]2 [Ec]2 [FABd]2 ||1 [GBe]2 z2 [B,G] [B,E] z2 | %18
 [FB] z [DF] z E z [CF_A]2 | B, E z2 [B,G] [EB] _A [EG] | [GB]2 [CEF_A]2 [GB] [B,E] [B,D] z | %21
 [B,G] E D [EG] z4 | B, z B, C [=B,D] z C z | [_A,C] z [CF] B C z _A [_DFB] | %24
 [F_A] z [EG] [=EGB] [CFA] F D F | [=B,DG]4 [Gc]2 [CG]2 | C2 =B,2 [EGc]2 z2 | %27
 F2 [CE]2 [C_A]2 [CG]2 | [=B,G]2 [EG]2 [F_A]2 [B,DG]2 | [EGc] z z2 [EG] z z2 | z4 [DF] z [DF] z | %31
 [DB]3 [CA] [EG] z [EG] z | [Ec] z [CA]2 [^FA] z [A,D]2 | [^FAd]2 [FAc]2 [DF]2 [CF]2 | %34
 [D^FA]2 z2 F A G F | D ^F D z G F G F | [B,G] z z [B,DG] [B,D]2 z2 :|2 !arpeggio![Ge]4 z4 |] %38
V:4
|: E, F, G, _A, B, E D E | B, E D E B, C D B, | E E, D E, C E, B, E, | _A, E, G, E, F, B,, E, G,, | %4
 _A,, F,, B, B,, [E,G,B,] F, G, _A, | B, E D E B, E D E | B, C D B, E E, D E, | %7
 C E, B, E, _A, E, G, E, | F, B,, E, G,, _A, F, B, B,, | E, F, G, _A, B, E D E | %10
 B, E D E B, C D B, | E E, D E, C E, B, E, | _A, E, G, E, F, B,, E, G,, | %13
 _A, F, B, B,, E, F, G, A, | B, E D E B, E D E | B, C D B, E E, D E, | C E, B, E, _A, E, B, B,, ||1 %17
 !fermata!E, B,, C, D, E, G, F, E, | D, C, B,, _A,, G,, C, F,, B,, | E, G, _A, B, E, G, A, B, | %20
 E, G,, _A,, B,, E, G,, A,, B,, | E, G,, _A,, B,, E, G,, A,, B,, | E, D, E, F, G, E, _A, G, | %23
 F, G, _A, B, C, _A,, _D, B,, | C, B,, C, C,, F,, F, D, F, | G,, D, G, F, E, D, E, F, | %26
 G, F, G, G,, C C, B, C, | _A, C, G, C, F, C, E, C, | D, G,, C, E, F, D, G, G,, | %29
 C, F, E, D, C, D, C, B,, | A,, G,, A,, F,, B,, C, B,, A,, | G,, D, G, F, E, D, C, B,, | %32
 A,, B,, C, A,, D, =E, ^F, D, | D D, C D, B, D, A, D, | C D, B, D, A,D,G,D, | %35
 ^F, D, G, =F, E, D, E, C, | D, C, D, D,, G,, D, G, F, :|2 !arpeggio![E,B,]4 z4 |] %38

